X:13
T:Adventure at Margate
M:6/8
K:G
"G"dBG dBG|"C"e2d "G"d3|dBG dBG|"D"c2B "G"B3|dBG dBG|
"C"ecG ecG|"G"Bcd "D"dcB|"G"G3G3::"D"ABc cBA|"G"dBG dBG|"D"ABc cBA|
"G"dBG "G7"GBd|"C"ece "Am"ece|"G"dBd dBd|"C"edc "D7"BcA|"G"(G3G3):|

